contributed-vectors/xplore_file_manager.svg

<?xml version="1.0" encoding="UTF-8" standalone="no"?>
<svg
   xmlns:dc="http://purl.org/dc/elements/1.1/"
   xmlns:cc="http://creativecommons.org/ns#"
   xmlns:rdf="http://www.w3.org/1999/02/22-rdf-syntax-ns#"
   xmlns:svg="http://www.w3.org/2000/svg"
   xmlns="http://www.w3.org/2000/svg"
   xmlns:sodipodi="http://sodipodi.sourceforge.net/DTD/sodipodi-0.dtd"
   xmlns:inkscape="http://www.inkscape.org/namespaces/inkscape"
   sodipodi:docname="xplore_file_manager.svg"
   inkscape:version="1.0.1 (3bc2e813f5, 2020-09-07)"
   version="1.1"
   id="svg2"
   viewBox="0 0 192 192"
   height="192"
   width="192"
   inkscape:export-filename="/home/jphilippe/inkscape/icônes/delta-github/png/xplore_file_manager.png"
   inkscape:export-xdpi="96"
   inkscape:export-ydpi="96">
  <sodipodi:namedview
     inkscape:document-rotation="0"
     inkscape:window-maximized="1"
     inkscape:window-y="0"
     inkscape:window-x="36"
     inkscape:window-height="1052"
     inkscape:window-width="1884"
     units="px"
     showgrid="false"
     inkscape:current-layer="layer1"
     inkscape:document-units="px"
     inkscape:cy="89.349109"
     inkscape:cx="176.2984"
     inkscape:zoom="0.70710677"
     inkscape:pageshadow="2"
     inkscape:pageopacity="0.0"
     borderopacity="1.0"
     bordercolor="#666666"
     pagecolor="#ffffff"
     id="base"
     inkscape:snap-bbox="false"
     inkscape:object-paths="true"
     inkscape:snap-nodes="true"
     showguides="true"
     inkscape:guide-bbox="true"
     inkscape:snap-object-midpoints="true"
     inkscape:snap-center="true"
     inkscape:snap-global="false"
     inkscape:snap-intersection-paths="true"
     inkscape:snap-smooth-nodes="true"
     inkscape:snap-midpoints="true" />
  <defs
     id="defs4" />
  <metadata
     id="metadata7">
    <rdf:RDF>
      <cc:Work
         rdf:about="">
        <dc:format>image/svg+xml</dc:format>
        <dc:type
           rdf:resource="http://purl.org/dc/dcmitype/StillImage" />
        <dc:title />
      </cc:Work>
    </rdf:RDF>
  </metadata>
  <g
     transform="translate(0,-860.36216)"
     id="layer1"
     inkscape:groupmode="layer"
     inkscape:label="Calque 1">
    <rect
       x="19.999992"
       y="880.36218"
       width="152"
       height="152"
       rx="10"
       fill="#728dbe"
       id="rect888"
       ry="10"
       style="fill:#f9de81;fill-opacity:1" />
    <path
       fill-rule="evenodd"
       clip-rule="evenodd"
       d="m 20,903.36199 c 0,-5.5228 4.4752,-10 9.9981,-10 11.1769,0 28.3903,0 33.5687,0 8.4587,0 11.5737,13.2564 15.366,13.2564 21.0057,0 63.7042,0 83.0912,0 5.523,0 9.976,4.4772 9.976,10 V 1022.362 c 0,5.523 -4.477,10 -10,10 H 30 c -5.5228,0 -10,-4.477 -10,-10 z"
       fill="#9abeff"
       id="path890"
       style="fill:#83868c;fill-opacity:1" />
    <path
       id="path1080"
       style="opacity:1;fill:#d8d8d8;fill-opacity:1;stroke:none;stroke-width:12.2794;stroke-linecap:round;stroke-linejoin:round;stop-color:#000000"
       d="M 46.671875 172 L 84.142578 172 L 102.64258 153.5 C 106.09266 150.0499 112.57935 148.89705 117.40625 149.50195 C 118.76766 149.67245 120.1398 149.75791 121.51758 149.75781 C 139.78177 149.75771 154.58779 134.9517 154.58789 116.6875 C 154.58805 111.8668 153.53477 107.11673 151.51562 102.76562 C 150.81842 101.26323 149.18139 101.05505 148.00977 102.22656 L 128.61719 121.61719 A 3.1641845 3.1641845 0 0 1 126.06445 122.5293 L 117.39062 121.6582 A 1.834295 1.834295 0 0 1 115.74805 120.01562 L 114.87891 111.34375 A 3.1647963 3.1647963 0 0 1 115.78906 108.78906 L 134.95117 89.626953 C 136.12269 88.455363 135.89142 86.858234 134.36523 86.214844 C 130.3084 84.504444 125.94033 83.617287 121.51758 83.617188 C 121.44988 83.616998 121.38216 83.616998 121.31445 83.617188 C 103.12964 83.728988 88.447026 98.50239 88.447266 116.6875 C 88.447266 117.6524 88.490229 118.61582 88.574219 119.57422 C 88.998789 124.42032 87.707892 130.96592 84.257812 134.41602 L 46.671875 172 z "
       transform="translate(0,860.36216)" />
    <path
       id="path1086"
       style="opacity:0.598988;fill:#b1b5bd;fill-opacity:1;stroke:none;stroke-width:2.855;stroke-linecap:round;stroke-linejoin:round;stop-color:#000000"
       d="M 61.029297 172 L 69.785156 172 L 94.277344 147.50781 C 95.489799 146.29536 95.489806 144.34332 94.277344 143.13086 C 93.064889 141.9184 91.112845 141.9184 89.900391 143.13086 L 61.029297 172 z "
       transform="translate(0,860.36216)" />
  </g>
  <style
     type="text/css"
     id="style853">
	.st0{fill:#FFFFFF;}
</style>
</svg>

<svg xmlns="http://www.w3.org/2000/svg" id="svg2" width="192" height="192" version="1.1"><g id="layer1" transform="translate(0 -860.362)"><rect id="rect888" width="152" height="152" x="20" y="880.362" fill="#728dbe" rx="10" ry="10" style="fill:#f9de81;fill-opacity:1"/><path id="path890" fill="#9abeff" fill-rule="evenodd" d="M20 903.362c0-5.523 4.475-10 9.998-10h33.569c8.459 0 11.574 13.256 15.366 13.256h83.091c5.523 0 9.976 4.478 9.976 10v105.744c0 5.523-4.477 10-10 10H30c-5.523 0-10-4.477-10-10z" clip-rule="evenodd" style="fill:#83868c;fill-opacity:1"/><path id="path1080" d="M46.672 172h37.47l18.5-18.5c3.45-3.45 9.937-4.603 14.764-3.998 1.362.17 2.734.256 4.112.256 18.264 0 33.07-14.806 33.07-33.07 0-4.821-1.053-9.571-3.072-13.922-.698-1.503-2.335-1.711-3.506-.54l-19.393 19.391a3.164 3.164 0 0 1-2.553.912l-8.673-.87a1.834 1.834 0 0 1-1.643-1.643l-.87-8.672a3.165 3.165 0 0 1 .911-2.555l19.162-19.162c1.172-1.172.94-2.769-.586-3.412a33.074 33.074 0 0 0-13.05-2.598c-18.185.112-32.868 14.885-32.868 33.07 0 .965.043 1.929.127 2.887.425 4.846-.866 11.392-4.316 14.842L46.672 172z" style="opacity:1;fill:#d8d8d8;fill-opacity:1;stroke:none;stroke-width:12.2794;stroke-linecap:round;stroke-linejoin:round;stop-color:#000" transform="translate(0 860.362)"/><path id="path1086" d="M61.03 172h8.755l24.492-24.492a3.088 3.088 0 0 0 0-4.377 3.088 3.088 0 0 0-4.377 0L61.03 172z" style="opacity:.598988;fill:#b1b5bd;fill-opacity:1;stroke:none;stroke-width:2.855;stroke-linecap:round;stroke-linejoin:round;stop-color:#000" transform="translate(0 860.362)"/></g><style id="style853" type="text/css">.st0{fill:#fff}</style></svg>
